X:2
T:"Fiona's Folly" by Elizabeth (Clark) Zekley  1990
D:Tune written for Keith & Taizz's daughter Fiona
S:Original Tune
R:Waltz
O:Mendocino California
M:3/4
Q:200
F:http://larkcamp.com/meabc.txt
K:G
de|f3 gaf|g2e2ef|e3 fge|fDFAde|f3gaf|g2f2e2|c3dec|1d4:|2dAdefg|:a2 ab c'/b/a|bBegbg|g2 ga b/a/g|aDFAde|f2 fg a/g/f|g2f2e2|c3 dec|1dAdefg:|2d4|
